X: 1
T: The Black Squirrel
T: 8x32S 3C (Alex Gray, Tweeddale 4)
P: The Luscombes of Colorado
R: strathspey
C: James Gray
C: Arr. T. Traub 8-23-2015
M: 4/4
L: 1/8
K: A
R: strathspey
E|: "A"C<Ac>A "E"G>AB>G|"A"A<E"D"d<f "E"ef/g/ "A"ae|"Bm"d<bB>d "A"c<aA>c|1 "Bm"d>E"A"c>E "E"(3BAG (3FED :|2 "Bm"d>F"E"E>e "A"c<A A2 ||
"A"A,<AC<A "Bm"D<A"A"E<A|"E"E>Gd>B "A"c<A AG/A/|"Bm"F<d"E"G<d "A"E<c"F#m"A>C|"Bm"D<Fd>c "E"(3BAG (3FED|
"A"C<AA,<A "Bm"D<A"A"E<A|"E"E>Gd>B "A"c<A AG/A/|"Bm"F<dd<f "E"ef/g/ "A"a>c|"Bm"d>F "E"E>e "A"c<A A |]
